X: 6886
T: Chase The Squirrel
R: hornpipe
M: 4/4
K: Dmajor
|:(3Bcd|d2 dD FAAF|EDAD FAAF|D2 DA BddB|ABAF E2 (3Bcd|
d2 dD FAAF|EDAD FA A2|dcdf edeg|f2 d2 d2:|
|:(3Bdf|e3 f gfef|d3 e gdAf|g3 e f2 af|eddb A2 Bc|
dD AD FAAF|EDAD FA A2|dAdf edeg|f2 d2 d2:|

